Obsidian/actions/16s/playlist-similar.svg

<svg xmlns="http://www.w3.org/2000/svg" width="16" height="16" viewBox="0 0 16 16">
 <defs>
  <style id="current-color-scheme" type="text/css">
   .ColorScheme-Text { color:#bebebe; } .ColorScheme-Highlight { color:#4285f4; }
  </style>
 </defs>
 <path style="fill:currentColor" class="ColorScheme-Text" d="M 1 1 L 1 3 L 15 3 L 15 1 L 1 1 z M 9 5 L 9 7 L 9 10 L 9 11 L 13 11 L 13 13 L 9 13 L 9 15 L 15 15 L 15 13 L 15 10 L 15 9 L 11 9 L 11 7 L 15 7 L 15 5 L 11 5 L 9 5 z M 1 5.0039062 L 1 7.0039062 L 7 7.0039062 L 7 5.0039062 L 1 5.0039062 z M 1 9.0039062 L 1 11.003906 L 7 11.003906 L 7 9.0039062 L 1 9.0039062 z M 1 13 L 1 15 L 7 15 L 7 13 L 1 13 z"/>
</svg>

<svg height="16" viewBox="0 0 16 16" width="16" xmlns="http://www.w3.org/2000/svg"><path d="m1 1v2h14v-2zm8 4v2 3 1h4v2h-4v2h6v-2-3-1h-4v-2h4v-2h-4zm-8 .0039062v2h6v-2zm0 4v1.9999998h6v-1.9999998zm0 3.9960938v2h6v-2z" fill="#bebebe"/></svg>
